build/images/icon-fav.svg

<svg width="30" height="26" viewBox="0 0 30 26" fill="none" xmlns="http://www.w3.org/2000/svg">
<path d="M27.8112 2.55408C26.3315 0.907041 24.2788 0 22.0312 0C18.8702 0 16.869 1.85202 15.7468 3.40571C15.4556 3.80888 15.2079 4.21314 15 4.59355C14.7921 4.21314 14.5444 3.80888 14.2532 3.40571C13.131 1.85202 11.1298 0 7.96875 0C5.72121 0 3.6685 0.907099 2.18877 2.55414C0.777363 4.12531 0 6.22955 0 8.47922C0 10.9281 0.97459 13.2057 3.06709 15.647C4.93723 17.829 7.62768 20.0781 10.7432 22.6825C11.9041 23.653 13.1046 24.6566 14.3827 25.7536L14.4211 25.7866C14.5868 25.9289 14.7934 26 15 26C15.2066 26 15.4132 25.9288 15.5789 25.7866L15.6173 25.7536C16.8954 24.6566 18.0959 23.653 19.257 22.6823C22.3723 20.0781 25.0628 17.829 26.9329 15.647C29.0254 13.2057 30 10.9281 30 8.47922C30 6.22955 29.2226 4.12531 27.8112 2.55408ZM18.1168 21.37C17.116 22.2065 16.086 23.0675 15 23.9937C13.914 23.0676 12.884 22.2066 11.883 21.3698C5.78584 16.2729 1.75781 12.9056 1.75781 8.47922C1.75781 6.64962 2.3792 4.95027 3.50754 3.69427C4.64883 2.42401 6.23314 1.72441 7.96875 1.72441C10.3787 1.72441 11.9365 3.18085 12.8189 4.40266C13.6104 5.49846 14.0235 6.60312 14.1643 7.02715C14.2822 7.38209 14.6195 7.6223 15 7.6223C15.3805 7.6223 15.7178 7.38209 15.8357 7.02715C15.9765 6.60312 16.3896 5.49846 17.1811 4.4026C18.0635 3.18085 19.6213 1.72441 22.0312 1.72441C23.7669 1.72441 25.3512 2.42401 26.4924 3.69427C27.6208 4.95027 28.2422 6.64962 28.2422 8.47922C28.2422 12.9056 24.2142 16.2729 18.1168 21.37Z" fill="white"/>
</svg>

<svg width="30" height="26" fill="none" xmlns="http://www.w3.org/2000/svg"><path d="M27.811 2.554C26.331.907 24.28 0 22.031 0c-3.16 0-5.162 1.852-6.284 3.406-.291.403-.54.807-.747 1.188-.208-.38-.456-.785-.747-1.188C13.131 1.852 11.13 0 7.97 0c-2.248 0-4.3.907-5.78 2.554C.777 4.125 0 6.23 0 8.48c0 2.45.975 4.727 3.067 7.168 1.87 2.182 4.56 4.431 7.676 7.036 1.161.97 2.362 1.974 3.64 3.07l.038.034a.887.887 0 001.158 0l.038-.033c1.278-1.097 2.479-2.101 3.64-3.072 3.115-2.604 5.806-4.853 7.676-7.035C29.025 13.206 30 10.928 30 8.479c0-2.25-.777-4.354-2.189-5.925zM18.117 21.37A371.825 371.825 0 0015 23.994c-1.086-.926-2.116-1.787-3.117-2.624C5.786 16.273 1.758 12.906 1.758 8.48c0-1.83.621-3.53 1.75-4.786 1.14-1.27 2.725-1.97 4.46-1.97 2.41 0 3.969 1.457 4.85 2.679a10.142 10.142 0 011.346 2.624.878.878 0 00.836.595c.38 0 .718-.24.836-.595.14-.424.554-1.529 1.345-2.624.883-1.222 2.44-2.679 4.85-2.679 1.736 0 3.32.7 4.461 1.97 1.129 1.256 1.75 2.956 1.75 4.785 0 4.427-4.028 7.794-10.125 12.891z" fill="#74CA5E"/></svg>
